X:7676
T:Omie Wise
C:anon.
O:USA
Z:Transcribed by Frank Nordberg - http://www.musicaviva.com
F:http://abc.musicaviva.com/tunes/usa/omie-wise-am/omie-wise-am-gtr1.abc
V:1 program 1 24 up transpose -12
V:2 program 1 24 merge down transpose -12
M:C
L:1/4
Q:1/4=130
K:Am
V:1
a|a3/b/ag|a2ba|g3/g/ed|G2zG|A2c/c/d|eaag|e3/d/eG|A3:|
V:2
z|A,4|A,4|G,4|G,4|A,4|A,4|G,4|A,3:|
W:
W:
W:  From Musica Viva - http://www.musicaviva.com
W:  the Internet center for free sheet music downloads.
